svg/u1f36a.svg

<svg viewBox="0 0 128 128" xmlns="http://www.w3.org/2000/svg">
  <path d="M15.99,35.76l-4.26,0.98c0,0-5.91,9.12-7.2,18.82c-0.81,6.09-0.84,14.04-0.28,18 c0.57,3.96,2.61,12.39,5.82,18.33c3.09,5.72,6.1,7.97,9.39,9.96c1.41,0.85,2.67,3.76,4.87,5.17c2.06,1.32,4.78,1.58,4.78,1.58 s7.52,11.81,23.79,13.86c19.09,2.4,28.43-6.22,28.43-6.22s7.64-0.02,14.85-3.11c8.09-3.47,12.41-10.69,12.41-10.69 s10.13-8.72,13.34-19.16c2.58-8.38,2.65-24.31,0.67-31.81c-1.98-7.5-5.81-13.85-8.85-17.92c-2.42-3.24-29.44-17.6-32.7-18.88 c-3.25-1.27-33.52-3.25-34.65-2.4C45.27,13.13,15.99,35.76,15.99,35.76z" fill="#AC5811"/>
  <radialGradient id="SVGID_1_" cx="64.1644" cy="57.5964" gradientUnits="userSpaceOnUse" r="53.202">
    <stop offset="0.507" stop-color="#F29F58"/>
    <stop offset="0.7151" stop-color="#F09D56"/>
    <stop offset="0.8262" stop-color="#EB9550"/>
    <stop offset="0.9141" stop-color="#E18745"/>
    <stop offset="0.9898" stop-color="#D47436"/>
    <stop offset="1" stop-color="#D27133"/>
  </radialGradient>
  <path d="M26.53,19.75c-7.05,5.74-10.7,8.74-14.36,15.92S9.69,52.38,10.35,55.9 c0.65,3.52,1.83,10.31,2.48,13.7C13.48,73,15.21,81.06,20,86.05c6.71,6.99,12.79,9.4,12.79,9.4s4.93,7.64,16.84,12.01 c15.66,5.74,22.71-2.61,28.71-4.83c6-2.22,13.18-2.35,19.32-6.66c6.13-4.31,12.92-9.53,17.36-20.49s3.52-15.79,3.65-18.53 c0.13-2.74-0.26-15.92-5.35-24.01s-11.21-12.95-13.57-14.49c-5.22-3.39-23.86-11.5-28.55-12.41c-4.7-0.91-21.46,0.51-28.11,3.25 S26.53,19.75,26.53,19.75z" fill="url(#SVGID_1_)"/>
  <path d="M56.28,71.46c-1.11-0.35-2.28-2-2.56-5.53c-0.39-5.03,3.32-6.42,3.32-6.42s4.42-1.17,7.53-2.28 c2.89-1.03,4.97-2.35,4.97-2.35s0.28-5.39,2.07-6.98c1.8-1.59,4.97-1.45,8.5-1.04c3.52,0.41,9.19,2.76,8.36,4.9 c-0.83,2.14-1.8,4.28-5.18,6.22c-3.38,1.93-5.8,3.73-7.53,5.25c-1.73,1.53-4.9,3.45-10.15,5.39S57.88,71.96,56.28,71.46z" fill="#FFC86E"/>
  <path d="M26.55,26.47c-3.32-0.68-8.01,6.51-8.88,8.89c-0.88,2.38-1.78,8.18-1.88,10.83 c-0.13,3.29-0.19,6.38,1.19,8.89c1.06,1.94,3.63,3.03,5.94,1.03c2.31-2,6.32-7.48,7.38-8.25s4.16-1.79,2.94-6.83 c-0.5-2.06-5.57-6.32-5.82-6.9C27.18,33.56,28.43,26.86,26.55,26.47z" fill="#FFC86E"/>
  <path d="M50.02,17.44c0.13,1.93,1.71,5.02,3.42,6.69c2.56,2.49,14.3,10.91,17.34,10.43s6.35-5.94,7.32-7.46 s2.9-3.66,3.66-4.63c0.76-0.97,2.76-3.18,1.11-5.39c-1.66-2.21-5.8-3.66-8.56-3.87c-2.76-0.21-7.05-2-10.71-1.86 C59.94,11.49,49.68,12.46,50.02,17.44z" fill="#FFC86E"/>
  <path d="M98.34,43.19c0.23,2.1,3.18,2.56,5.53,4.08s3.94,3.11,5.32,2.69c1.38-0.41,3.26-2.62,2.83-6.49 c-0.55-4.97-3.66-11.33-8.01-11.12c-2.63,0.13-2.27,4.7-2.27,4.7S98.2,41.95,98.34,43.19z" fill="#FFC86E"/>
  <path d="M41.47,30.23c0,0-9.43-0.06-9.26,0.88c0.18,0.94,1,4.04,3.46,4.16c2.46,0.12,5.63,0.35,7.15-0.12 c1.52-0.47,5.74-3.87,5.74-5.39s-1.7-3.75-1.7-3.75L41.47,30.23z" fill="#CF701E"/>
  <path d="M54.94,47.52c0,0-0.11,0.07-0.27,0.2c-0.47,0.39-1.37,1.3-1.02,2.32c0.47,1.35,3.22,3.87,5.92,3.87 s4.16-2.52,4.63-4.16c0.47-1.64,0.23-2.64,0.23-2.64L54.94,47.52z" fill="#CF701E"/>
  <path d="M33.91,55.2c0,0-1.64,0.59-1.58,1.64c0.06,1.05,0.47,2.99,2.58,5.04c2.13,2.07,5.22,2.64,8.03,1.88 c2.81-0.76,4.86-2.87,4.63-5.68c-0.23-2.81-2.93-4.98-2.93-4.98L33.91,55.2z" fill="#CF701E"/>
  <path d="M21.78,70.73c0,0-1.76,0.41-1.58,1.58s2.17,4.86,5.33,4.45s8.15-4.04,8.15-5.45s-2.52-3.28-2.52-3.28 L21.78,70.73z" fill="#CF701E"/>
  <path d="M43.34,85.38c0,0-0.65,3.78,4.45,5.16c8.5,2.29,9.38-2.87,9.38-2.87L43.34,85.38z" fill="#CF701E"/>
  <path d="M76.73,87.13c0,0-2.28,2.28,0.31,4.07c2.59,1.79,5.54,2.4,8.32,2.09s4.68-2.53,4.68-2.53L76.73,87.13 z" fill="#CF701E"/>
  <path d="M98.01,61.81c0,0-4.3,2.17-0.97,5.92c2.53,2.86,8.32,2.28,10.69,0.67c1.55-1.05,2.01-2.91,1.43-3.85 C108.57,63.61,98.01,61.81,98.01,61.81z" fill="#CF701E"/>
  <path d="M81.37,36.97c0,0-0.23,4.91,6.39,4.75c9.26-0.23,8.09-5.98,8.09-5.98L81.37,36.97z" fill="#CF701E"/>
  <path d="M85.65,30.82c0,0-4.34,2.7-4.81,3.81c-0.47,1.11-1.47,4.63,3.57,4.4c5.04-0.23,10.08-0.41,11.78-2.46 c1.7-2.05,1.29-3.93,0.59-5.45s-4.64-7.27-7.77-7.2C86.96,23.96,85.65,30.82,85.65,30.82z" fill="#593329"/>
  <path d="M88.99,23.9c0,0-2.75-0.35-5.16,3.93c-2.4,4.28-3.02,6.83-3.02,6.83s4.89,0.02,7.82-0.33 c2.93-0.35,4.92-2.17,4.92-2.17S91.16,24.43,88.99,23.9z" fill="#925849"/>
  <path d="M55.71,43.89c0,0-2.4-0.16-2.58,0.77c-0.18,0.94,0.35,3.33,1.17,4.38s3.28,3.4,5.74,2.93 c2.46-0.47,3.92-2.88,4.33-3.71c0.37-0.78,0.77-1.62,0.07-2.67C63.73,44.53,55.71,43.89,55.71,43.89z" fill="#593329"/>
  <path d="M59.28,40.14c-2.04-0.22-6.96,3.69-6.08,5.03c0.98,1.47,1.15,0.54,3.85,1.89 c2.23,1.11,3.2,2.14,4.6,1.96s3.07-2.49,2.78-3.43C64.14,44.65,62.04,40.43,59.28,40.14z" fill="#925849"/>
  <path d="M36.19,24.31l-4.8,3.32c0,0-0.18,2.25,0.82,3.48c1,1.23,1.29,1.99,5.98,1.99s9.08-0.64,9.9-3.98 c0.82-3.34-0.62-5.48-1.5-6.71C45.71,21.18,36.19,24.31,36.19,24.31z" fill="#593329"/>
  <path d="M36.25,19.1c-1.08,0.46-3.63,3.93-4.22,5.45c-0.59,1.52-0.72,3.14-0.64,3.16 c0.97,0.24,6.68,0.77,9.2,0.36c2.52-0.41,4.57-1.52,5.39-2.99c0.65-1.17,0.6-2.72,0.6-2.72s-1.71-3.08-4.06-4.02 C40.18,17.4,36.66,18.92,36.25,19.1z" fill="#925949"/>
  <path d="M32.23,55.42c0,0-0.4,0.61,0.36,1.78c0.76,1.17,2.25,2.57,4.48,3.22c2.23,0.64,3.81,1.52,5.27,1.35 c1.47-0.18,4.34-1.35,4.45-5.39c0.12-4.04-0.7-5.92-2.46-7.68s-3.03-1.46-3.03-1.46L32.23,55.42z" fill="#593329"/>
  <path d="M32.74,51.68c-0.62,1.04-1.08,4.42-0.32,5.18c0.76,0.76,5.33,0.81,6.53,0.68 c1.21-0.13,5.16-1.99,5.22-3.4c0.06-1.41-0.7-3.28-0.7-3.98s0.88-2.34-1.52-2.93S34.02,49.51,32.74,51.68z" fill="#925849"/>
  <path d="M24.82,66.86c0,0-3.77,0.93-4.01,2.22c-0.23,1.29,0.31,2.59,1.6,3.82c1.29,1.23,2.23,2.52,3.22,2.4 c1-0.12,3.63-2.46,4.45-3.22c0.82-0.76,1.99-2.11,1.88-3.22s-0.59-2.23-1.64-3.11C29.28,64.87,24.82,66.86,24.82,66.86z" fill="#593329"/>
  <path d="M25.76,63.52c-1.76,0.04-3.11,2.17-3.69,2.93c-0.59,0.76-1.58,2.58-1.17,2.87 c0.41,0.29,2.11,0.47,2.93,1c0.82,0.53,2.05,1.35,2.99,0.59c0.94-0.76,1.76-2.87,2.23-3.57c0.47-0.7,1.29-1.58,1.29-1.58 S28.57,63.46,25.76,63.52z" fill="#925849"/>
  <path d="M47.27,77.64c-0.35,0.41-5.33,4.45-5.33,4.45s0.18,3.52,1.29,4.34c1.11,0.82,4.57,1.99,6.8,2.46 c2.23,0.47,6.21,1,7.21,0.59c1-0.41,2.05-2.58,2.11-5.39c0.06-2.81-0.94-4.91-2.05-6.2c-1.11-1.29-2-1.77-2-1.77L47.27,77.64z" fill="#593329"/>
  <path d="M53.89,82.91c0.65-0.73,1.41-6.8,1.41-6.8s-4.51-3.46-6.39-3.69c-1.88-0.23-4.1-0.06-4.75,0.64 c-0.64,0.7-3.16,3.22-2.93,4.86s0.7,4.16,0.7,4.16S52.54,84.44,53.89,82.91z" fill="#925849"/>
  <path d="M75.75,85.8c0,0-0.57,3.8,3.61,4.52c4.18,0.71,7.65,1.66,9.46,1.28c1.81-0.38,3.61-2.8,3.8-4.56 c0.19-1.76,0.29-4.3,0-4.99c-0.76-1.83-4.28-6.84-5.99-7.37c-0.96-0.29-1.87-0.13-1.87-0.13L75.75,85.8z" fill="#593329"/>
  <path d="M78.46,79.14c-1.87,2.07-2.83,5.06-2.73,6.64c0.1,1.49,7.19,0.84,8.03,0.33 c0.84-0.51,2.67-2.79,2.73-3.55s-0.52-3.14-0.62-4.61c-0.1-1.47-0.14-3.47-0.95-3.42C84.11,74.58,81.12,76.2,78.46,79.14z" fill="#925849"/>
  <path d="M102.44,53.34c0,0,1.65,0.24,3.68,1.46c2.37,1.42,4.85,5.04,4.66,7.99s-2.76,4.28-5.89,4.33 S98.7,67,98.13,65.38C97.56,63.76,102.44,53.34,102.44,53.34z" fill="#593329"/>
  <path d="M99.94,54.33c-0.49,0.68-1.76,2.76-2.19,5.42s-0.14,5.7,0.81,6.23c0.95,0.52,6.18-3.99,6.46-4.47 c0.29-0.48-1.67-7.75-2.29-8.08S100.56,53.48,99.94,54.33z" fill="#925849"/>
</svg>

<svg viewBox="0 0 128 128" xmlns="http://www.w3.org/2000/svg">
  <defs>
    <radialGradient id="SVGID_1_" cx="64.1644" cy="57.5964" gradientUnits="userSpaceOnUse" r="53.202">
      <stop offset="0.507" stop-color="#F29F58"/>
      <stop offset="0.7151" stop-color="#F09D56"/>
      <stop offset="0.8262" stop-color="#EB9550"/>
      <stop offset="0.9141" stop-color="#E18745"/>
      <stop offset="0.9898" stop-color="#D47436"/>
      <stop offset="1" stop-color="#D27133"/>
    </radialGradient>
  </defs>
  <path d="M15.99,35.76 L11.73,36.74 C11.73,36.74 5.82,45.86 4.53,55.56 C3.72,61.65 3.69,69.6 4.25,73.56 C4.82,77.52 6.86,85.95 10.07,91.89 C13.16,97.61 16.17,99.86 19.46,101.85 C20.87,102.7 22.13,105.61 24.33,107.02 C26.39,108.34 29.11,108.6 29.11,108.6 C29.11,108.6 36.63,120.41 52.9,122.46 C71.99,124.86 81.33,116.24 81.33,116.24 C81.33,116.24 88.97,116.22 96.18,113.13 C104.27,109.66 108.59,102.44 108.59,102.44 C108.59,102.44 118.72,93.72 121.93,83.28 C124.51,74.9 124.58,58.97 122.6,51.47 C120.62,43.97 116.79,37.62 113.75,33.55 C111.33,30.31 84.31,15.95 81.05,14.67 C77.8,13.4 47.53,11.42 46.4,12.27 C45.27,13.13 15.99,35.76 15.99,35.76 Z" fill="#AC5811"/>
  <path d="M26.53,19.75 C19.48,25.49 15.83,28.49 12.17,35.67 C8.51,42.85 9.69,52.38 10.35,55.9 C11,59.42 12.18,66.21 12.83,69.6 C13.48,73 15.21,81.06 20,86.05 C26.71,93.04 32.79,95.45 32.79,95.45 C32.79,95.45 37.72,103.09 49.63,107.46 C65.29,113.2 72.34,104.85 78.34,102.63 C84.34,100.41 91.52,100.28 97.66,95.97 C103.79,91.66 110.58,86.44 115.02,75.48 C119.46,64.52 118.54,59.69 118.67,56.95 C118.8,54.21 118.41,41.03 113.32,32.94 C108.23,24.85 102.11,19.99 99.75,18.45 C94.53,15.06 75.89,6.95 71.2,6.04 C66.5,5.13 49.74,6.55 43.09,9.29 C36.44,12.03 26.53,19.75 26.53,19.75 Z" fill="url(#SVGID_1_)"/>
  <path d="M56.28,71.46 C55.17,71.11 54,69.46 53.72,65.93 C53.33,60.9 57.04,59.51 57.04,59.51 C57.04,59.51 61.46,58.34 64.57,57.23 C67.46,56.2 69.54,54.88 69.54,54.88 C69.54,54.88 69.82,49.49 71.61,47.9 C73.41,46.31 76.58,46.45 80.11,46.86 C83.63,47.27 89.3,49.62 88.47,51.76 C87.64,53.9 86.67,56.04 83.29,57.98 C79.91,59.91 77.49,61.71 75.76,63.23 C74.03,64.76 70.86,66.68 65.61,68.62 C60.36,70.56 57.88,71.96 56.28,71.46 Z" fill="#FFC86E"/>
  <path d="M26.55,26.47 C23.23,25.79 18.54,32.98 17.67,35.36 C16.79,37.74 15.89,43.54 15.79,46.19 C15.66,49.48 15.6,52.57 16.98,55.08 C18.04,57.02 20.61,58.11 22.92,56.11 C25.23,54.11 29.24,48.63 30.3,47.86 C31.36,47.09 34.46,46.07 33.24,41.03 C32.74,38.97 27.67,34.71 27.42,34.13 C27.18,33.56 28.43,26.86 26.55,26.47 Z" fill="#FFC86E"/>
  <path d="M50.02,17.44 C50.15,19.37 51.73,22.46 53.44,24.13 C56,26.62 67.74,35.04 70.78,34.56 C73.82,34.08 77.13,28.62 78.1,27.1 C79.07,25.58 81,23.44 81.76,22.47 C82.52,21.5 84.52,19.29 82.87,17.08 C81.21,14.87 77.07,13.42 74.31,13.21 C71.55,13 67.26,11.21 63.6,11.35 C59.94,11.49 49.68,12.46 50.02,17.44 Z" fill="#FFC86E"/>
  <path d="M98.34,43.19 C98.57,45.29 101.52,45.75 103.87,47.27 C106.22,48.79 107.81,50.38 109.19,49.96 C110.57,49.55 112.45,47.34 112.02,43.47 C111.47,38.5 108.36,32.14 104.01,32.35 C101.38,32.48 101.74,37.05 101.74,37.05 C101.74,37.05 98.2,41.95 98.34,43.19 Z" fill="#FFC86E"/>
  <path d="M41.47,30.23 C41.47,30.23 32.04,30.17 32.21,31.11 C32.39,32.05 33.21,35.15 35.67,35.27 C38.13,35.39 41.3,35.62 42.82,35.15 C44.34,34.68 48.56,31.28 48.56,29.76 C48.56,28.24 46.86,26.01 46.86,26.01 L41.47,30.23 Z" fill="#CF701E"/>
  <path d="M54.94,47.52 C54.94,47.52 54.83,47.59 54.67,47.72 C54.2,48.11 53.3,49.02 53.65,50.04 C54.12,51.39 56.87,53.91 59.57,53.91 C62.27,53.91 63.73,51.39 64.2,49.75 C64.67,48.11 64.43,47.11 64.43,47.11 L54.94,47.52 Z" fill="#CF701E"/>
  <path d="M33.91,55.2 C33.91,55.2 32.27,55.79 32.33,56.84 C32.39,57.89 32.8,59.83 34.91,61.88 C37.04,63.95 40.13,64.52 42.94,63.76 C45.75,63 47.8,60.89 47.57,58.08 C47.34,55.27 44.64,53.1 44.64,53.1 L33.91,55.2 Z" fill="#CF701E"/>
  <path d="M21.78,70.73 C21.78,70.73 20.02,71.14 20.2,72.31 C20.38,73.48 22.37,77.17 25.53,76.76 C28.69,76.35 33.68,72.72 33.68,71.31 C33.68,69.9 31.16,68.03 31.16,68.03 L21.78,70.73 Z" fill="#CF701E"/>
  <path d="M43.34,85.38 C43.34,85.38 42.69,89.16 47.79,90.54 C56.29,92.83 57.17,87.67 57.17,87.67 L43.34,85.38 Z" fill="#CF701E"/>
  <path d="M76.73,87.13 C76.73,87.13 74.45,89.41 77.04,91.2 C79.63,92.99 82.58,93.6 85.36,93.29 C88.14,92.98 90.04,90.76 90.04,90.76 L76.73,87.13 Z" fill="#CF701E"/>
  <path d="M98.01,61.81 C98.01,61.81 93.71,63.98 97.04,67.73 C99.57,70.59 105.36,70.01 107.73,68.4 C109.28,67.35 109.74,65.49 109.16,64.55 C108.57,63.61 98.01,61.81 98.01,61.81 Z" fill="#CF701E"/>
  <path d="M81.37,36.97 C81.37,36.97 81.14,41.88 87.76,41.72 C97.02,41.49 95.85,35.74 95.85,35.74 L81.37,36.97 Z" fill="#CF701E"/>
  <path d="M85.65,30.82 C85.65,30.82 81.31,33.52 80.84,34.63 C80.37,35.74 79.37,39.26 84.41,39.03 C89.45,38.8 94.49,38.62 96.19,36.57 C97.89,34.52 97.48,32.64 96.78,31.12 C96.08,29.6 92.14,23.85 89.01,23.92 C86.96,23.96 85.65,30.82 85.65,30.82 Z" fill="#593329"/>
  <path d="M88.99,23.9 C88.99,23.9 86.24,23.55 83.83,27.83 C81.43,32.11 80.81,34.66 80.81,34.66 C80.81,34.66 85.7,34.68 88.63,34.33 C91.56,33.98 93.55,32.16 93.55,32.16 C93.55,32.16 91.16,24.43 88.99,23.9 Z" fill="#925849"/>
  <path d="M55.71,43.89 C55.71,43.89 53.31,43.73 53.13,44.66 C52.95,45.6 53.48,47.99 54.3,49.04 C55.12,50.09 57.58,52.44 60.04,51.97 C62.5,51.5 63.96,49.09 64.37,48.26 C64.74,47.48 65.14,46.64 64.44,45.59 C63.73,44.53 55.71,43.89 55.71,43.89 Z" fill="#593329"/>
  <path d="M59.28,40.14 C57.24,39.92 52.32,43.83 53.2,45.17 C54.18,46.64 54.35,45.71 57.05,47.06 C59.28,48.17 60.25,49.2 61.65,49.02 C63.05,48.84 64.72,46.53 64.43,45.59 C64.14,44.65 62.04,40.43 59.28,40.14 Z" fill="#925849"/>
  <path d="M36.19,24.31 L31.39,27.63 C31.39,27.63 31.21,29.88 32.21,31.11 C33.21,32.34 33.5,33.1 38.19,33.1 C42.88,33.1 47.27,32.46 48.09,29.12 C48.91,25.78 47.47,23.64 46.59,22.41 C45.71,21.18 36.19,24.31 36.19,24.31 Z" fill="#593329"/>
  <path d="M36.25,19.1 C35.17,19.56 32.62,23.03 32.03,24.55 C31.44,26.07 31.31,27.69 31.39,27.71 C32.36,27.95 38.07,28.48 40.59,28.07 C43.11,27.66 45.16,26.55 45.98,25.08 C46.63,23.91 46.58,22.36 46.58,22.36 C46.58,22.36 44.87,19.28 42.52,18.34 C40.18,17.4 36.66,18.92 36.25,19.1 Z" fill="#925949"/>
  <path d="M32.23,55.42 C32.23,55.42 31.83,56.03 32.59,57.2 C33.35,58.37 34.84,59.77 37.07,60.42 C39.3,61.06 40.88,61.94 42.34,61.77 C43.81,61.59 46.68,60.42 46.79,56.38 C46.91,52.34 46.09,50.46 44.33,48.7 C42.57,46.94 41.3,47.24 41.3,47.24 L32.23,55.42 Z" fill="#593329"/>
  <path d="M32.74,51.68 C32.12,52.72 31.66,56.1 32.42,56.86 C33.18,57.62 37.75,57.67 38.95,57.54 C40.16,57.41 44.11,55.55 44.17,54.14 C44.23,52.73 43.47,50.86 43.47,50.16 C43.47,49.46 44.35,47.82 41.95,47.23 C39.55,46.64 34.02,49.51 32.74,51.68 Z" fill="#925849"/>
  <path d="M24.82,66.86 C24.82,66.86 21.05,67.79 20.81,69.08 C20.58,70.37 21.12,71.67 22.41,72.9 C23.7,74.13 24.64,75.42 25.63,75.3 C26.63,75.18 29.26,72.84 30.08,72.08 C30.9,71.32 32.07,69.97 31.96,68.86 C31.85,67.75 31.37,66.63 30.32,65.75 C29.28,64.87 24.82,66.86 24.82,66.86 Z" fill="#593329"/>
  <path d="M25.76,63.52 C24,63.56 22.65,65.69 22.07,66.45 C21.48,67.21 20.49,69.03 20.9,69.32 C21.31,69.61 23.01,69.79 23.83,70.32 C24.65,70.85 25.88,71.67 26.82,70.91 C27.76,70.15 28.58,68.04 29.05,67.34 C29.52,66.64 30.34,65.76 30.34,65.76 C30.34,65.76 28.57,63.46 25.76,63.52 Z" fill="#925849"/>
  <path d="M47.27,77.64 C46.92,78.05 41.94,82.09 41.94,82.09 C41.94,82.09 42.12,85.61 43.23,86.43 C44.34,87.25 47.8,88.42 50.03,88.89 C52.26,89.36 56.24,89.89 57.24,89.48 C58.24,89.07 59.29,86.9 59.35,84.09 C59.41,81.28 58.41,79.18 57.3,77.89 C56.19,76.6 55.3,76.12 55.3,76.12 L47.27,77.64 Z" fill="#593329"/>
  <path d="M53.89,82.91 C54.54,82.18 55.3,76.11 55.3,76.11 C55.3,76.11 50.79,72.65 48.91,72.42 C47.03,72.19 44.81,72.36 44.16,73.06 C43.52,73.76 41,76.28 41.23,77.92 C41.46,79.56 41.93,82.08 41.93,82.08 C41.93,82.08 52.54,84.44 53.89,82.91 Z" fill="#925849"/>
  <path d="M75.75,85.8 C75.75,85.8 75.18,89.6 79.36,90.32 C83.54,91.03 87.01,91.98 88.82,91.6 C90.63,91.22 92.43,88.8 92.62,87.04 C92.81,85.28 92.91,82.74 92.62,82.05 C91.86,80.22 88.34,75.21 86.63,74.68 C85.67,74.39 84.76,74.55 84.76,74.55 L75.75,85.8 Z" fill="#593329"/>
  <path d="M78.46,79.14 C76.59,81.21 75.63,84.2 75.73,85.78 C75.83,87.27 82.92,86.62 83.76,86.11 C84.6,85.6 86.43,83.32 86.49,82.56 C86.55,81.8 85.97,79.42 85.87,77.95 C85.77,76.48 85.73,74.48 84.92,74.53 C84.11,74.58 81.12,76.2 78.46,79.14 Z" fill="#925849"/>
  <path d="M102.44,53.34 C102.44,53.34 104.09,53.58 106.12,54.8 C108.49,56.22 110.97,59.84 110.78,62.79 C110.59,65.74 108.02,67.07 104.89,67.12 C101.76,67.17 98.7,67 98.13,65.38 C97.56,63.76 102.44,53.34 102.44,53.34 Z" fill="#593329"/>
  <path d="M99.94,54.33 C99.45,55.01 98.18,57.09 97.75,59.75 C97.32,62.41 97.61,65.45 98.56,65.98 C99.51,66.5 104.74,61.99 105.02,61.51 C105.31,61.03 103.35,53.76 102.73,53.43 C102.11,53.1 100.56,53.48 99.94,54.33 Z" fill="#925849"/>
</svg>
